svg/emoji_u1f9c5.svg

<?xml version="1.0" encoding="UTF-8" standalone="no"?>
<svg
   width="128px"
   height="128px"
   version="1.1"
   xml:space="preserve"
   style="fill-rule:evenodd;clip-rule:evenodd;stroke-linejoin:round;stroke-miterlimit:2;"
   id="svg5213"
   sodipodi:docname="emoji_u1f9c5.svg"
   inkscape:version="1.2.2 (732a01da63, 2022-12-09)"
   xmlns:inkscape="http://www.inkscape.org/namespaces/inkscape"
   xmlns:sodipodi="http://sodipodi.sourceforge.net/DTD/sodipodi-0.dtd"
   xmlns:xlink="http://www.w3.org/1999/xlink"
   xmlns="http://www.w3.org/2000/svg"
   xmlns:svg="http://www.w3.org/2000/svg"><sodipodi:namedview
     id="namedview5215"
     pagecolor="#ffffff"
     bordercolor="#000000"
     borderopacity="0.25"
     inkscape:showpageshadow="2"
     inkscape:pageopacity="0.0"
     inkscape:pagecheckerboard="0"
     inkscape:deskcolor="#d1d1d1"
     showgrid="false"
     inkscape:zoom="2.8284271"
     inkscape:cx="48.790368"
     inkscape:cy="53.740115"
     inkscape:window-width="1366"
     inkscape:window-height="697"
     inkscape:window-x="-8"
     inkscape:window-y="-8"
     inkscape:window-maximized="1"
     inkscape:current-layer="svg5213" /><path
     id="path6775"
     style="color:#000000;clip-rule:nonzero;fill:#f79329;fill-opacity:1;fill-rule:nonzero;stroke-width:0.999996;stroke-linecap:round;stroke-linejoin:miter;-inkscape-stroke:none"
     d="m 62.213973,110.35365 c -1.537064,0.13312 -2.556578,1.42406 -3.77731,2.21053 -2.013143,1.49641 -4.112015,2.90469 -6.452763,3.83853 -0.946287,0.43244 -2.067049,0.553 -2.801157,1.37085 -1.655311,1.5129 -1.557352,4.42216 0.199954,5.81848 1.27294,1.13857 3.166518,1.12398 4.660377,0.46119 1.554473,-0.59841 2.994916,-1.45306 4.396994,-2.34364 -0.124322,1.41234 0.005,2.97508 1.051149,4.04197 1.5325,1.81662 4.621805,1.83042 6.171551,0.0295 1.067019,-1.06738 1.205536,-2.64607 1.078089,-4.07148 1.946358,1.18673 3.951453,2.50686 6.259817,2.80656 2.203516,0.20384 4.277475,-1.75302 4.191826,-3.96485 0.02116,-1.864 -1.459007,-3.5477 -3.282065,-3.8512 -2.215141,-0.86523 -4.303672,-2.02249 -6.208803,-3.44604 -1.258391,-0.82729 -2.364128,-1.87662 -3.664657,-2.6356 -0.583785,-0.19794 -1.206117,-0.34298 -1.823002,-0.26481 z" /><g
     transform="matrix(1,0,0,1,0.0648382,-0.670929)"
     id="g5191"
     style="fill:url(#linearGradient13344);fill-opacity:1"><path
       d="m 62.16,6.84 c -2.654434,0.4428065 -7.09,-5.02 -7.65,-2.58 -0.56,2.44 0.42,7.32 -1.64,10.51 -2.06,3.19 -4.88,4.69 -7.13,5.44 -2.25,0.75 -33.97,14.529723 -33.97,49.436556 0,34.906834 26.743267,48.365724 52.209727,48.365724 25.46646,0 50.616093,-18.897336 50.616093,-49.531175 C 114.59582,34.075627 82.0193,20.662021 75.12,18.27 71.549299,17.032021 70.895138,15.170822 70.47,12.64 70.045136,10.110812 69.77,2.93 67.8,2.5 65.83,2.07 64.499848,6.449672 62.16,6.84 Z"
       style="fill:url(#linearGradient14778);fill-rule:nonzero;fill-opacity:1"
       id="path5189"
       sodipodi:nodetypes="sssszzsssss" /></g><path
     d="m 58.97,10.828181 c 1.5,0.14 0.79,-2.5299996 3.05,-2.8599996 1.92,-0.28 2.06,2.4899996 3.28,2.0199996 1.22,-0.4699996 0.79,-4.0299996 0.99,-5.9599996 0.19,-1.88 1.5,-2.21 1.5,-2.21 0,0 -0.93,-1.03 -2.9,-0.47 -1.97,0.56 -2.72,3.1 -2.72,3.1 0,0 -1.88,-3.28 -4.5,-3 -2.43,0.26 -3,1.88 -3,1.88 0,0 1.88,0.09 2.44,1.5 0.56,1.41 -0.15,5.8099996 1.86,5.9999996 z"
     style="fill:#f78c04;fill-rule:nonzero;fill-opacity:1"
     id="path5193" /><path
     d="m 65.92,32.79 c 0.56,3.52 5.31,21.17 5.54,33.41 0.28,15.3 -1.5,25.64 -2.96,32.57 -1.64,7.79 -3.38,13.94 -3.38,13.94 l 3.193209,-1.57291 C 68.313209,111.13709 73.14,94.46 74.27,82.44 75.26,71.87 74.41,58.93 71.74,46.4 69.06,33.87 67,24.9 66.53,20.63 66.19,17.54 65.69,12.7 65.69,12.7 c 0,0 2.96,6.28 5.02,9.29 1.85,2.7 6.38,8.63 10.89,17.64 5.04,10.07 8.54,23.84 7.98,35.1 -0.56,11.26 -2.63,19.66 -4.88,24.03 -2.25,4.36 -8.45,10.56 -8.45,10.56 l -2.96,2.53 c 0,0 7.74,-2.39 10.7,-6.9 2.96,-4.51 8.96,-13.61 8.68,-31.91 -0.28,-18.3 -5.26,-28.63 -8.82,-35.95 -2.84,-5.83 -11.9,-17.88 -11.9,-17.88 0,0 14.24,10.25 17.71,13.39 8.73,7.88 15.39,17.36 16.42,34.77 0.77,12.99 -3.55353,20.959111 -7.122187,27.952166 C 95.834289,101.44296 87.87,108.34 87.87,108.34 c 0,0 7.199859,-5.23986 11.760537,-11.072912 C 104.19122,91.434036 110.06304,82.924901 109.32,67.23 108.34,46.53 98.48,36.92 92.43,31.33 87.26,26.56 77.68,20.53 73.8,18.24 c -3.31,-1.95 -4.04,-3.8 -4.46,-5.35 -0.42,-1.55 -1.27,-1.5 -1.27,-1.5 L 56.9,12.42 55.82,11.94 c 0,0 -5.3,8.28 -10.75,12.17 C 41,27.02 31,33.73 24.34,43.77 17.59,53.95 16.78,64.7 17.68,75.49 c 0.94,11.26 6.19,23.7 16.19,29.89 10,6.19 22.38,7.88 22.38,7.88 0,0 -7.73,-2.84 -11.64,-4.46 -4.32,-1.78 -9.76,-4.22 -14.97,-10.32 -4.42,-5.17 -11.66,-18.16 -9.43,-35.19 1.6,-12.2 7.03,-20.81 14.08,-27.31 7.37,-6.8 11.16,-9.26 13,-10.79 4.22,-3.52 7.98,-9.13 7.98,-9.13 0,0 1.72,-1.62 0.28,1.48 -1.23,2.65 -5.58,8.67 -6.41,9.85 -3.03,4.36 -7.34,8.12 -12.79,22.48 -5.63,14.85 -3.99,28.02 -2.16,34.91 1.83,6.9 4.22,12.67 7.7,17.08 4.19,5.32 13.8,10.79 13.8,10.79 0,0 -8,-6.91 -11.26,-11.54 C 40.39,95.38 38.3,89.15 36.55,81.68 35.05,75.3 34.48,64.71 38.8,51.55 c 3.38,-10.28 5.98,-13.68 9.36,-18.61 3.38,-4.93 5.65,-7.95 8.47,-12.55 1.65,-2.7 3.21,-7.09 3.21,-7.09 l 0.63,-0.19 c 0,0 -0.7,5.77 -1.41,8.73 -0.71,2.96 -1.45,7.6 -3.28,12.53 -1.83,4.93 -8.24,18.39 -7.7,33.83 0.66,18.63 5.3,30.03 7.13,34.4 1.83,4.37 4.69,12.06 4.69,12.06 l 1.6,-3.66313 c 0,0 -7.13,-16.60687 -9.1,-28.85687 C 50.62,71.07 50.48,63.6 51.84,55.2 c 0.86,-5.29 6.1,-17.97 7.09,-21.63 0.99,-3.66 2.25,-9.48 2.53,-11.17 l 1.48,-6.22 z"
     style="fill:url(#linearGradient5782);fill-opacity:1;fill-rule:nonzero"
     id="path5195"
     sodipodi:nodetypes="cccccccccccscccssccccsczsccsccccccsccccccccccccccccscccsscsccccsccc" /><defs
     id="defs5211"><linearGradient
       inkscape:collect="always"
       id="linearGradient13342"><stop
         style="stop-color:#ffcc80;stop-opacity:1;"
         offset="0"
         id="stop13338" /><stop
         style="stop-color:#f79329;stop-opacity:1;"
         offset="1"
         id="stop13340" /></linearGradient><linearGradient
       inkscape:collect="always"
       id="linearGradient5780"><stop
         style="stop-color:#ffcc80;stop-opacity:1;"
         offset="0"
         id="stop5776" /><stop
         style="stop-color:#f79329;stop-opacity:1;"
         offset="0.07285333"
         id="stop5784" /><stop
         style="stop-color:#f79329;stop-opacity:1;"
         offset="0.86159927"
         id="stop5993" /><stop
         style="stop-color:#f79329;stop-opacity:1;"
         offset="1"
         id="stop5778" /></linearGradient><radialGradient
       id="_Radial1"
       cx="0"
       cy="0"
       r="1"
       gradientUnits="userSpaceOnUse"
       gradientTransform="matrix(110.269,0,0,110.269,61.8364,1.1749)"><stop
         offset="0"
         style="stop-color:#ffa726;stop-opacity:1"
         id="stop5197" /><stop
         offset="0.22"
         style="stop-color:#ffcc80;stop-opacity:1"
         id="stop5199" /><stop
         offset="0.77"
         style="stop-color:#ffcc80;stop-opacity:1"
         id="stop5201" /><stop
         offset="1"
         style="stop-color:#f79329;stop-opacity:1"
         id="stop5203" /></radialGradient><radialGradient
       id="_Radial2"
       cx="0"
       cy="0"
       r="1"
       gradientUnits="userSpaceOnUse"
       gradientTransform="matrix(96.4928,0,0,96.4928,61.131,10.4503)"><stop
         offset="0"
         style="stop-color:#ffb343;stop-opacity:1"
         id="stop5206" /><stop
         offset="1"
         style="stop-color:#f79329;stop-opacity:1"
         id="stop5208" /></radialGradient><linearGradient
       inkscape:collect="always"
       xlink:href="#linearGradient5780"
       id="linearGradient5782"
       x1="62.638069"
       y1="19.183054"
       x2="62.638069"
       y2="111.23116"
       gradientUnits="userSpaceOnUse" /><radialGradient
       id="_Radial2-5"
       cx="0"
       cy="0"
       r="1"
       gradientUnits="userSpaceOnUse"
       gradientTransform="matrix(96.4928,0,0,96.4928,-25.999666,12.860203)"><stop
         offset="0"
         style="stop-color:#ffb343;stop-opacity:1"
         id="stop10391" /><stop
         offset="1"
         style="stop-color:#f79329;stop-opacity:1"
         id="stop10393" /></radialGradient><radialGradient
       id="_Radial1-2"
       cx="0"
       cy="0"
       r="1"
       gradientUnits="userSpaceOnUse"
       gradientTransform="matrix(110.269,0,0,110.269,61.8364,1.1749)"><stop
         offset="0"
         style="stop-color:#ffa726;stop-opacity:1"
         id="stop10382" /><stop
         offset="0.22"
         style="stop-color:#ffcc80;stop-opacity:1"
         id="stop10384" /><stop
         offset="0.77"
         style="stop-color:#ffcc80;stop-opacity:1"
         id="stop10386" /><stop
         offset="1"
         style="stop-color:#f79329;stop-opacity:1"
         id="stop10388" /></radialGradient><linearGradient
       inkscape:collect="always"
       xlink:href="#linearGradient13342"
       id="linearGradient13344"
       x1="60.307911"
       y1="5.9533939"
       x2="60.307911"
       y2="113.9913"
       gradientUnits="userSpaceOnUse" /><linearGradient
       inkscape:collect="always"
       xlink:href="#linearGradient13342"
       id="linearGradient14778"
       gradientUnits="userSpaceOnUse"
       x1="60.307911"
       y1="39.953392"
       x2="60.307911"
       y2="108.2413" /></defs></svg>

<?xml version="1.0" encoding="UTF-8" standalone="no"?><!DOCTYPE svg PUBLIC "-//W3C//DTD SVG 1.1//EN" "http://www.w3.org/Graphics/SVG/1.1/DTD/svg11.dtd"><svg width="128px" height="128px" version="1.1" xmlns="http://www.w3.org/2000/svg" xmlns:xlink="http://www.w3.org/1999/xlink" xml:space="preserve" xmlns:serif="http://www.serif.com/" style="fill-rule:evenodd;clip-rule:evenodd;stroke-linejoin:round;stroke-miterlimit:2;"><g transform="matrix(1,0,0,1,0.0648382,-0.670929)"><path d="M62.16,6.84C62.16,6.84 55.07,1.82 54.51,4.26C53.95,6.7 54.93,11.58 52.87,14.77C50.81,17.96 47.99,19.46 45.74,20.21C43.49,20.96 19.09,30.16 11.77,54.56C4.45,78.96 15.71,99.78 32.89,109.75C46.97,117.92 56.26,116.7 56.26,116.7C56.26,116.7 54.38,118.39 53.63,118.58C52.88,118.77 50.35,118.86 49.13,119.05C47.91,119.24 43.59,120.74 43.97,121.87C44.35,123 48.1,121.4 49.7,121.12C51.3,120.84 54.02,120.65 54.58,120.37C55.14,120.09 57.86,118.21 57.86,118.21C57.86,118.21 56.83,121.03 55.89,122.06C54.95,123.09 56.73,124.5 58.8,123.94C60.87,123.38 62.37,118.5 62.37,118.5C62.37,118.5 62.46,121.41 62.46,122.35C62.46,123.29 62.18,124.79 62.55,125.17C62.93,125.55 65.74,126.01 66.59,125.55C67.44,125.09 67.25,123.2 67.25,123.2C67.25,123.2 69.78,124.8 71.38,125.64C72.98,126.48 74.57,127.33 75.13,126.58C75.69,125.83 75.22,124.33 74.66,123.95C74.1,123.57 72.13,122.64 71.75,122.07C71.37,121.51 70.62,119.82 70.62,119.82C70.62,119.82 72.78,118.32 73.72,118.51C74.66,118.7 77.1,121.33 78.41,121.89C79.72,122.45 82.35,124.24 83.29,123.95C84.23,123.67 84.89,122.82 84.51,122.35C84.13,121.88 81.04,120.38 80.29,119.63C79.54,118.88 76.63,116.53 76.63,116.53C76.63,116.53 91.26,114.09 101.03,104.85C112.25,94.24 123.63,71.1 112.71,48.68C102.29,27.28 82.02,20.66 75.12,18.27C71.55,17.03 70.9,15.17 70.47,12.64C70.05,10.11 69.77,2.93 67.8,2.5C65.83,2.07 62.16,6.84 62.16,6.84Z" style="fill:url(#_Radial1);fill-rule:nonzero;"/></g><path d="M58.97,11.48C60.47,11.62 59.76,8.95 62.02,8.62C63.94,8.34 64.08,11.11 65.3,10.64C66.52,10.17 66.09,6.61 66.29,4.68C66.48,2.8 67.79,2.47 67.79,2.47C67.79,2.47 66.86,1.44 64.89,2C62.92,2.56 62.17,5.1 62.17,5.1C62.17,5.1 60.29,1.82 57.67,2.1C55.24,2.36 54.67,3.98 54.67,3.98C54.67,3.98 56.55,4.07 57.11,5.48C57.67,6.89 56.96,11.29 58.97,11.48Z" style="fill:#f78c04;fill-rule:nonzero;"/><path d="M65.92,32.79C66.48,36.31 71.23,53.96 71.46,66.2C71.74,81.5 69.96,91.84 68.5,98.77C66.86,106.56 65.12,112.71 65.12,112.71L69.48,107.22C69.48,107.22 73.14,94.46 74.27,82.44C75.26,71.87 74.41,58.93 71.74,46.4C69.06,33.87 67,24.9 66.53,20.63C66.19,17.54 65.69,12.7 65.69,12.7C65.69,12.7 68.65,18.98 70.71,21.99C72.56,24.69 77.09,30.62 81.6,39.63C86.64,49.7 90.14,63.47 89.58,74.73C89.02,85.99 86.95,94.39 84.7,98.76C82.45,103.12 76.25,109.32 76.25,109.32L73.29,111.85C73.29,111.85 81.03,109.46 83.99,104.95C86.95,100.44 92.95,91.34 92.67,73.04C92.39,54.74 87.41,44.41 83.85,37.09C81.01,31.26 71.95,19.21 71.95,19.21C71.95,19.21 86.19,29.46 89.66,32.6C98.39,40.48 105.05,49.96 106.08,67.37C106.85,80.36 103.26,88.91 99.32,94.54C95.38,100.17 87.87,108.34 87.87,108.34L99.51,98.86C99.51,98.86 110.3,87.93 109.32,67.23C108.34,46.53 98.48,36.92 92.43,31.33C87.26,26.56 77.68,20.53 73.8,18.24C70.49,16.29 69.76,14.44 69.34,12.89C68.92,11.34 68.07,11.39 68.07,11.39L56.9,12.42L55.82,11.94C55.82,11.94 50.52,20.22 45.07,24.11C41,27.02 31,33.73 24.34,43.77C17.59,53.95 16.78,64.7 17.68,75.49C18.62,86.75 23.87,99.19 33.87,105.38C43.87,111.57 56.25,113.26 56.25,113.26C56.25,113.26 48.52,110.42 44.61,108.8C40.29,107.02 34.85,104.58 29.64,98.48C25.22,93.31 17.98,80.32 20.21,63.29C21.81,51.09 27.24,42.48 34.29,35.98C41.66,29.18 45.45,26.72 47.29,25.19C51.51,21.67 55.27,16.06 55.27,16.06C55.27,16.06 56.99,14.44 55.55,17.54C54.32,20.19 49.97,26.21 49.14,27.39C46.11,31.75 41.8,35.51 36.35,49.87C30.72,64.72 32.36,77.89 34.19,84.78C36.02,91.68 38.41,97.45 41.89,101.86C46.08,107.18 55.69,112.65 55.69,112.65C55.69,112.65 47.69,105.74 44.43,101.11C40.39,95.38 38.3,89.15 36.55,81.68C35.05,75.3 34.48,64.71 38.8,51.55C42.18,41.27 44.78,37.87 48.16,32.94C51.54,28.01 53.81,24.99 56.63,20.39C58.28,17.69 59.84,13.3 59.84,13.3L60.47,13.11C60.47,13.11 59.77,18.88 59.06,21.84C58.35,24.8 57.61,29.44 55.78,34.37C53.95,39.3 47.54,52.76 48.08,68.2C48.74,86.83 53.38,98.23 55.21,102.6C57.04,106.97 59.9,114.66 59.9,114.66L61.5,109.08C61.5,109.08 54.37,94.39 52.4,82.14C50.62,71.07 50.48,63.6 51.84,55.2C52.7,49.91 57.94,37.23 58.93,33.57C59.92,29.91 61.18,24.09 61.46,22.4L62.94,16.18L65.92,32.79Z" style="fill:url(#_Radial2);fill-rule:nonzero;"/><defs><radialGradient id="_Radial1" cx="0" cy="0" r="1" gradientUnits="userSpaceOnUse" gradientTransform="matrix(110.269,0,0,110.269,61.8364,1.1749)"><stop offset="0" style="stop-color:#ffa726;stop-opacity:1"/><stop offset="0.22" style="stop-color:#ffcc80;stop-opacity:1"/><stop offset="0.77" style="stop-color:#ffcc80;stop-opacity:1"/><stop offset="1" style="stop-color:#f79329;stop-opacity:1"/></radialGradient><radialGradient id="_Radial2" cx="0" cy="0" r="1" gradientUnits="userSpaceOnUse" gradientTransform="matrix(96.4928,0,0,96.4928,61.131,10.4503)"><stop offset="0" style="stop-color:#ffb343;stop-opacity:1"/><stop offset="1" style="stop-color:#f79329;stop-opacity:1"/></radialGradient></defs></svg>
